X:27
T:Not yet
S:Kevin Burke ``If the Cap fits"
I:speed 550
M:2/4
K:G
|:d2G2 | d2G2 | dedc | B2G2 |
c4 | cdef | g2d2 | e2d2 |
d2G2 | d2G2 | dedc | B2G2 |
c2ec | B2dB | AGAB G4 :|
|:g2d2 | edBd | g2d2 | edBd |
c4 | cdef | g2d2 | e2d2 |
g2d2 | edBd | g2d2 | edBd |
c4 | B4 | AGAB | G4 :|
